X: 26258
T: Megan & Jarrod
R: waltz
M: 3/4
K: Fmajor
|F2A2B2|c4f2|d3cB2|c4f2|d3cB2|c4F2|B2A2B2|
G3FE2|F2A2B2 c4F2|d3cB2|A4F2|(2 G2A2|(2 B2F2|(2 E2D2|C3DE2|
F2A2B2|c4f2|g2f4|a4c2|d2F2z2|c2F2z2|B4A2|G3FE2|
D3 EFG|A4F2|B2A4|A4F2|B2A4|D4 c2|d3ef2|g3fe2||
f2F2z2|e2F2z2|B2c4|c4B2|A3 Bc2|d2c4|(G6|G2)FGA2|
|:B3 BAB|AFCFGA|B3 BAB|AFc2 BA|B3 BAB|
[1 AFCFGA|ABfBgB|e4 dc:|2 AFC2 z2|(2 G2F2|E6||

